icons/svg/place_of_worship/bahai3.svg

<?xml version="1.0" encoding="UTF-8" standalone="no"?>
<!-- Created with Inkscape (http://www.inkscape.org/) -->

<svg
   xmlns:dc="http://purl.org/dc/elements/1.1/"
   xmlns:cc="http://creativecommons.org/ns#"
   xmlns:rdf="http://www.w3.org/1999/02/22-rdf-syntax-ns#"
   xmlns:svg="http://www.w3.org/2000/svg"
   xmlns="http://www.w3.org/2000/svg"
   xmlns:sodipodi="http://sodipodi.sourceforge.net/DTD/sodipodi-0.dtd"
   xmlns:inkscape="http://www.inkscape.org/namespaces/inkscape"
   version="1.0"
   width="580"
   height="580"
   id="svg2"
   sodipodi:version="0.32"
   inkscape:version="0.91 r13725"
   sodipodi:docname="bahai3.svg"
   inkscape:output_extension="org.inkscape.output.svg.inkscape">
  <metadata
     id="metadata2975">
    <rdf:RDF>
      <cc:Work
         rdf:about="">
        <dc:format>image/svg+xml</dc:format>
        <dc:type
           rdf:resource="http://purl.org/dc/dcmitype/StillImage" />
        <cc:license
           rdf:resource="http://web.resource.org/cc/PublicDomain" />
        <dc:language>en</dc:language>
      </cc:Work>
    </rdf:RDF>
  </metadata>
  <sodipodi:namedview
     inkscape:window-height="1051"
     inkscape:window-width="1920"
     inkscape:pageshadow="2"
     inkscape:pageopacity="0.0"
     guidetolerance="10.0"
     gridtolerance="10.0"
     objecttolerance="10.0"
     borderopacity="1.0"
     bordercolor="#666666"
     pagecolor="#ffffff"
     id="base"
     inkscape:zoom="0.92167712"
     inkscape:cx="200.4779"
     inkscape:cy="267.72097"
     inkscape:window-x="0"
     inkscape:window-y="0"
     inkscape:current-layer="svg2"
     showgrid="false"
     inkscape:window-maximized="1" />
  <defs
     id="defs4">
    <inkscape:perspective
       sodipodi:type="inkscape:persp3d"
       inkscape:vp_x="0 : 290 : 1"
       inkscape:vp_y="0 : 1000 : 0"
       inkscape:vp_z="580 : 290 : 1"
       inkscape:persp3d-origin="290 : 193.33333 : 1"
       id="perspective2441" />
    <inkscape:perspective
       id="perspective2466"
       inkscape:persp3d-origin="372.04724 : 350.78739 : 1"
       inkscape:vp_z="744.09448 : 526.18109 : 1"
       inkscape:vp_y="0 : 1000 : 0"
       inkscape:vp_x="0 : 526.18109 : 1"
       sodipodi:type="inkscape:persp3d" />
    <inkscape:perspective
       id="perspective3333"
       inkscape:persp3d-origin="372.04724 : 350.78739 : 1"
       inkscape:vp_z="744.09448 : 526.18109 : 1"
       inkscape:vp_y="0 : 1000 : 0"
       inkscape:vp_x="0 : 526.18109 : 1"
       sodipodi:type="inkscape:persp3d" />
    <inkscape:perspective
       id="perspective3401"
       inkscape:persp3d-origin="372.04724 : 350.78739 : 1"
       inkscape:vp_z="744.09448 : 526.18109 : 1"
       inkscape:vp_y="0 : 1000 : 0"
       inkscape:vp_x="0 : 526.18109 : 1"
       sodipodi:type="inkscape:persp3d" />
    <inkscape:perspective
       id="perspective3464"
       inkscape:persp3d-origin="372.04724 : 350.78739 : 1"
       inkscape:vp_z="744.09448 : 526.18109 : 1"
       inkscape:vp_y="0 : 1000 : 0"
       inkscape:vp_x="0 : 526.18109 : 1"
       sodipodi:type="inkscape:persp3d" />
    <inkscape:perspective
       id="perspective3581"
       inkscape:persp3d-origin="225 : 150 : 1"
       inkscape:vp_z="450 : 225 : 1"
       inkscape:vp_y="0 : 1000 : 0"
       inkscape:vp_x="0 : 225 : 1"
       sodipodi:type="inkscape:persp3d" />
    <inkscape:perspective
       id="perspective4312"
       inkscape:persp3d-origin="225 : 150 : 1"
       inkscape:vp_z="450 : 225 : 1"
       inkscape:vp_y="0 : 1000 : 0"
       inkscape:vp_x="0 : 225 : 1"
       sodipodi:type="inkscape:persp3d" />
  </defs>
  <g
     id="g1327">
    <path
       d="M 66.275,1.768 C 24.94,1.768 1.704,23.139 1.704,66.804 L 1.704,516.927 C 1.704,557.771 22.599,579.156 63.896,579.156 L 515.92,579.156 C 557.227,579.156 578.149,558.841 578.149,516.927 L 578.149,66.804 C 578.149,24.203 557.227,1.768 514.628,1.768 C 514.624,1.768 66.133,1.625 66.275,1.768 z "
       style="fill:#111;stroke:#eee;stroke-width:3.40799999"
       id="path1329" />
  </g>
  <path
     style="opacity:1;fill:#ffffff"
     d="m 193.51942,484.23458 c -0.31594,-35.48471 -1.2165,-65.15974 -2.00123,-65.94448 -1.49389,-1.49388 -65.5589,7.53167 -103.796871,14.62304 -21.960747,4.0727 -29.92185,2.93418 -29.92185,-4.27904 0,-2.02401 18.139252,-26.18113 40.309451,-53.68251 l 40.30941,-50.00256 -13.46797,-7.9463 c -7.40741,-4.37046 -14.26519,-7.94631 -15.23951,-7.94631 -0.97436,0 -10.878354,-5.85109 -22.008869,-13.00244 C 76.571444,288.9026 59.097465,278.33029 48.87095,272.55992 34.449767,264.42266 30.54575,260.20009 31.47368,253.74298 c 0.973242,-6.77237 4.802106,-8.86755 20.526699,-11.23222 40.515401,-6.09268 102.450631,-19.82678 102.450631,-22.71838 0,-1.66036 -8.85878,-28.42565 -19.68619,-59.47847 -19.30061,-55.35384 -21.07077,-67.756934 -9.6701,-67.756934 3.12452,0 28.17443,13.047954 55.6665,28.995474 27.49211,15.94749 51.65495,28.99544 53.69522,28.99544 2.04032,0 8.6526,-14.19937 14.69398,-31.55412 24.21563,-69.563143 31.92331,-86.309945 40.31688,-87.598427 4.43441,-0.680707 8.81605,1.059029 9.73698,3.866065 1.70153,5.186272 24.56731,68.907292 35.47363,98.855732 3.29095,9.03693 7.41209,16.43075 9.15805,16.43075 1.74594,0 24.65345,-12.73888 50.90555,-28.30869 54.73683,-32.463699 58.13792,-34.002539 65.3289,-29.558279 4.28023,2.64532 1.37822,14.650099 -15.10029,62.465809 -11.21934,32.55515 -20.72031,60.78176 -21.1133,62.72577 -0.67308,3.3295 66.32666,18.08904 106.56869,23.47628 15.62657,2.09191 18.3433,3.71961 18.22627,10.9201 -0.10906,6.7092 -10.91884,14.84515 -52.19183,39.28183 -28.62987,16.95102 -52.05432,32.29525 -52.05432,34.09832 0,1.80305 17.39729,24.6972 38.66063,50.87597 21.26333,26.17873 38.6606,49.54342 38.6606,51.92156 0,6.11796 -15.0092,5.42154 -73.45516,-3.40829 -28.14911,-4.25267 -53.58247,-7.73211 -56.51857,-7.73211 -4.33115,0 -5.33842,12.40067 -5.33842,65.72305 0,83.52355 -0.059,83.54462 -54.12487,19.3303 -21.48346,-25.51601 -40.63273,-46.39274 -42.55397,-46.39274 -1.92124,0 -20.46279,20.87673 -41.20348,46.39274 -27.11952,33.36349 -40.0594,46.39273 -46.07448,46.39273 -8.21767,0 -8.37417,-1.12939 -8.93849,-64.51766 z m 65.55549,-59.19631 c 13.64271,-17.01066 27.43347,-30.91461 30.64615,-30.89767 3.21266,0.017 17.14943,13.89679 30.9706,30.84406 l 25.12941,30.8132 0.96573,-33.7436 c 1.33302,-46.57596 2.72202,-51.14545 15.53867,-51.11927 5.80691,0.0118 16.64707,1.58523 24.08924,3.49642 20.61505,5.29408 46.39275,7.70824 46.39275,4.34484 0,-1.64976 -10.61475,-16.29735 -23.58833,-32.55012 -12.97356,-16.2528 -22.683,-31.90984 -21.5764,-34.79348 1.10654,-2.8836 16.15035,-13.59174 33.43068,-23.79587 17.28036,-10.20409 32.1758,-19.77769 33.10098,-21.2747 0.9252,-1.49698 -7.41827,-4.08906 -18.541,-5.76013 -11.12279,-1.67111 -21.09309,-3.28078 -22.15626,-3.57703 -1.06316,-0.29629 -10.19673,-1.86495 -20.29681,-3.48594 -22.64858,-3.63493 -23.13169,-7.41021 -6.7525,-52.76854 6.38619,-17.68511 10.85435,-32.91163 9.92923,-33.83673 -0.9251,-0.92513 -16.75206,7.1877 -35.17102,18.0285 -18.419,10.8408 -35.00407,19.71055 -36.85571,19.71055 -4.81627,0 -9.27732,-9.46903 -21.44918,-45.52801 -5.90259,-17.48627 -11.8211,-31.79321 -13.1523,-31.79321 -1.33117,0 -8.39203,16.70126 -15.69072,37.11395 -7.29875,20.41265 -15.30682,37.94301 -17.7958,38.95633 -4.22568,1.72039 -18.22221,-5.13293 -58.29812,-28.54545 -9.03691,-5.27942 -16.43077,-7.83253 -16.43077,-5.67356 0,2.15896 5.2192,18.71242 11.5982,36.7855 6.37901,18.07306 11.59818,35.53014 11.59818,38.79349 0,6.22613 -9.21828,8.74875 -59.0442,16.15754 -10.14784,1.50893 -19.27931,4.08442 -20.29222,5.72336 -1.01292,1.63889 3.88342,6.19386 10.88072,10.12208 39.29992,22.06269 52.98673,30.81096 54.6039,34.90151 0.9922,2.50956 -3.21632,11.2082 -9.35227,19.33028 -6.1359,8.12211 -17.44874,23.15363 -25.1396,33.40337 l -13.98343,18.63593 18.59885,-2.54607 c 10.22935,-1.40038 24.68791,-4.1227 32.13007,-6.04967 7.44217,-1.92699 18.31547,-3.51333 24.16288,-3.52514 l 10.63167,-0.0216 0.0528,33.82805 c 0.0448,28.70129 2.4689,51.22531 5.51303,51.22531 0.43888,0 11.9602,-13.91782 25.60292,-30.9285 z"
     id="path4757"
     sodipodi:nodetypes="cssscccssssssssssssssssssssssssssssssssccscccssssssssssssssssssssssssssscccscccsc"
     inkscape:connector-curvature="0" />
</svg>

<svg width="580" height="580" viewBox="0 0 580 580" fill="none" xmlns="http://www.w3.org/2000/svg">
<g clip-path="url(#clip0)">
<path d="M66.275 1.76799C24.94 1.76799 1.70398 23.139 1.70398 66.804V516.927C1.70398 557.771 22.599 579.156 63.896 579.156H515.92C557.227 579.156 578.149 558.841 578.149 516.927V66.804C578.149 24.203 557.227 1.76799 514.628 1.76799C514.624 1.76799 66.133 1.62499 66.275 1.76799Z" fill="#111111" stroke="#EEEEEE" stroke-width="3.408"/>
<path d="M193.519 484.235C193.203 448.75 192.303 419.075 191.518 418.29C190.024 416.796 125.959 425.822 87.7213 432.913C65.7606 436.986 57.7995 435.847 57.7995 428.634C57.7995 426.61 75.9387 402.453 98.1089 374.952L138.418 324.949L124.95 317.003C117.543 312.632 110.685 309.056 109.711 309.056C108.736 309.056 98.8325 303.205 87.702 296.054C76.5714 288.903 59.0975 278.33 48.8709 272.56C34.4498 264.423 30.5457 260.2 31.4737 253.743C32.4469 246.971 36.2758 244.875 52.0004 242.511C92.5158 236.418 154.451 222.684 154.451 219.792C154.451 218.132 145.592 191.367 134.765 160.314C115.464 104.96 113.694 92.557 125.095 92.557C128.219 92.557 153.269 105.605 180.761 121.552C208.253 137.5 232.416 150.548 234.456 150.548C236.497 150.548 243.109 136.349 249.15 118.994C273.366 49.4306 281.074 32.6838 289.467 31.3954C293.902 30.7146 298.283 32.4544 299.204 35.2614C300.906 40.4477 323.772 104.169 334.678 134.117C337.969 143.154 342.09 150.548 343.836 150.548C345.582 150.548 368.489 137.809 394.742 122.239C449.478 89.7755 452.879 88.2367 460.07 92.6809C464.351 95.3263 461.449 107.331 444.97 155.147C433.751 187.702 424.25 215.929 423.857 217.873C423.184 221.202 490.184 235.962 530.426 241.349C546.052 243.441 548.769 245.068 548.652 252.269C548.543 258.978 537.733 267.114 496.46 291.551C467.83 308.502 444.406 323.846 444.406 325.649C444.406 327.452 461.803 350.346 483.066 376.525C504.33 402.704 521.727 426.068 521.727 428.447C521.727 434.565 506.718 433.868 448.272 425.038C420.123 420.786 394.689 417.306 391.753 417.306C387.422 417.306 386.415 429.707 386.415 483.029C386.415 566.553 386.356 566.574 332.29 502.359C310.806 476.843 291.657 455.967 289.736 455.967C287.815 455.967 269.273 476.843 248.532 502.359C221.413 535.723 208.473 548.752 202.458 548.752C194.24 548.752 194.084 547.623 193.519 484.235V484.235ZM259.075 425.038C272.718 408.028 286.508 394.124 289.721 394.141C292.934 394.158 306.87 408.037 320.692 424.985L345.821 455.798L346.787 422.054C348.12 375.478 349.509 370.909 362.325 370.935C368.132 370.947 378.973 372.52 386.415 374.431C407.03 379.725 432.807 382.14 432.807 378.776C432.807 377.126 422.193 362.479 409.219 346.226C396.246 329.973 386.536 314.316 387.643 311.433C388.749 308.549 403.793 297.841 421.073 287.637C438.354 277.433 453.249 267.859 454.174 266.362C455.1 264.865 446.756 262.273 435.633 260.602C424.511 258.931 414.54 257.321 413.477 257.025C412.414 256.729 403.28 255.16 393.18 253.539C370.532 249.904 370.049 246.129 386.428 200.77C392.814 183.085 397.282 167.859 396.357 166.934C395.432 166.009 379.605 174.121 361.186 184.962C342.767 195.803 326.182 204.673 324.33 204.673C319.514 204.673 315.053 195.204 302.881 159.145C296.979 141.658 291.06 127.352 289.729 127.352C288.398 127.352 281.337 144.053 274.038 164.465C266.739 184.878 258.731 202.409 256.242 203.422C252.017 205.142 238.02 198.289 197.944 174.876C188.907 169.597 181.513 167.044 181.513 169.203C181.513 171.362 186.733 187.915 193.112 205.988C199.491 224.061 204.71 241.518 204.71 244.782C204.71 251.008 195.492 253.531 145.666 260.939C135.518 262.448 126.386 265.024 125.373 266.663C124.36 268.302 129.257 272.857 136.254 276.785C175.554 298.847 189.241 307.596 190.858 311.686C191.85 314.196 187.642 322.894 181.506 331.017C175.37 339.139 164.057 354.17 156.366 364.42L142.383 383.056L160.982 380.51C171.211 379.109 185.669 376.387 193.112 374.46C200.554 372.533 211.427 370.947 217.274 370.935L227.906 370.913L227.959 404.741C228.004 433.443 230.428 455.967 233.472 455.967C233.911 455.967 245.432 442.049 259.075 425.038V425.038Z" fill="white"/>
</g>
<defs>
<clipPath id="clip0">
<path d="M0 0H580V580H0V0Z" fill="white"/>
</clipPath>
</defs>
</svg>
